svg/Pictogram/pictograms-aem-0086-never_stand_in_unloading_area.svg

<?xml version="1.0" encoding="ISO-8859-1" standalone="yes"?>
<svg height="304.014" width="304.015">
  <metadata>
    <rdf:RDF xmlns:cc="http://web.resource.org/cc/" xmlns:dc="http://purl.org/dc/elements/1.1/" xmlns:rdf="http://www.w3.org/1999/02/22-rdf-syntax-ns#">
      <cc:Work rdf:about="">
        <dc:title></dc:title>
        <dc:description></dc:description>
        <dc:subject>
          <rdf:Bag>
            <rdf:li></rdf:li>
          </rdf:Bag>
        </dc:subject>
        <dc:publisher>
          <cc:Agent rdf:about="http://www.unece.org/trans/danger/publi/ghs/pictograms.html">
            <dc:title>Source: UNECE GHS of Classification and Labeling of Chemicals, Source: AEM Pictorial Database, Source: AEM Pictorial Database, Source: AEM Pictorial Database, Source: AEM Pictorial Database</dc:title>
          </cc:Agent>
        </dc:publisher>
        <dc:creator>
          <cc:Agent>
            <dc:title></dc:title>
          </cc:Agent>
        </dc:creator>
        <dc:rights>
          <cc:Agent>
            <dc:title></dc:title>
          </cc:Agent>
        </dc:rights>
        <dc:date></dc:date>
        <dc:format>image/svg+xml</dc:format>
        <dc:type rdf:resource="http://purl.org/dc/dcmitype/StillImage"/>
        <cc:license rdf:resource="http://en.wikipedia.org/wiki/Public_domain"/>
        <dc:language>en</dc:language>
      </cc:Work>
    </rdf:RDF>
  </metadata>
  <defs><marker id="ArrowEnd" markerHeight="3" markerUnits="strokeWidth" markerWidth="4" orient="auto" refX="0" refY="5" viewBox="0 0 10 10"><path d="M 0 0 L 10 5 L 0 10 z"/></marker><marker id="ArrowStart" markerHeight="3" markerUnits="strokeWidth" markerWidth="4" orient="auto" refX="10" refY="5" viewBox="0 0 10 10"><path d="M 10 0 L 0 5 L 10 10 z"/></marker> </defs>
  <g id="g2958" transform="matrix(1.3532768,0,0,1.3532781,-53.207834,-52.192858)">
    <path d="M 183.983 130.354C 189.804 130.354 195.901 124.928 195.901 118.237C 195.901 111.541 190.565 106.12 183.983 106.12C 177.401 106.12 172.065 111.541 172.065 118.237C 172.065 124.928 177.401 130.354 183.983 130.354" style="stroke:none; fill-rule:evenodd; fill:#000000"/>
    <path d="M 187.101 194.725C 187.101 193.206 185.89 191.971 184.394 191.971C 182.901 191.971 181.69 193.206 181.69 194.725L 181.687 240.413C 181.687 244.069 178.772 247.03 175.183 247.03C 171.585 247.03 168.675 244.069 168.675 240.413L 168.675 149.584C 168.675 148.045 167.444 146.795 165.929 146.795C 164.413 146.795 163.187 148.045 163.187 149.584L 163.187 186.643C 163.187 189.241 161.112 191.346 158.558 191.346C 156.003 191.346 153.929 189.241 153.929 186.643L 153.929 145.647C 153.929 138.924 159.292 133.471 165.905 133.471L 202.909 133.471C 209.522 133.471 214.882 138.924 214.882 145.647L 214.882 186.643C 214.882 189.241 212.812 191.346 210.257 191.346C 207.698 191.346 205.628 189.241 205.628 186.643L 205.628 149.584C 205.628 148.045 204.397 146.795 202.882 146.795C 201.366 146.795 200.14 148.045 200.14 149.584L 200.14 240.413C 200.14 244.069 197.226 247.03 193.632 247.03C 190.038 247.03 187.124 244.069 187.124 240.413L 187.104 194.725" style="stroke:none; fill-rule:evenodd; fill:#000000"/>
    <path d="M 230.491 250.045L 252.612 250.045L 252.612 52.8274L 230.491 52.8274L 230.491 250.045z" style="stroke:none; fill-rule:evenodd; fill:#000000"/>
    <path d="M 226.284 189.655L 213.964 177.334L 193.417 156.788L 203.136 147.073L 226.276 123.932L 217.909 115.67L 198.737 134.846L 185.104 148.475L 171.425 134.791L 152.312 115.678L 143.972 123.963L 167.022 147.018L 176.792 156.788L 156.136 177.444L 143.964 189.62L 152.327 197.881L 153.589 196.62L 168.98 181.229L 171.175 179.034L 185.104 165.1L 198.956 178.952L 201.12 181.116L 216.589 196.584L 217.894 197.889L 226.284 189.655" style="stroke:none; fill-rule:evenodd; fill:#ff3e3e"/>
    <path d="M 137.03 210.663L 124.839 82.8664C 124.589 79.2174 122.163 76.2024 118.913 75.0104L 68.1164 57.4874L 68.1084 57.4874L 67.0344 57.1164L 67.0344 57.1274L 66.9644 57.1084L 67.0224 57.1084L 63.7924 56.5184L 52.3434 56.5654L 52.3584 59.7254L 64.2024 59.6354L 51.5344 211.686L 51.4014 211.573L 51.4334 214.944L 53.7494 214.995L 57.3434 218.647C 56.3234 221.264 55.7454 224.104 55.7224 227.081C 55.6164 240.291 66.2414 251.084 79.4484 251.19C 92.6594 251.291 103.452 240.666 103.558 227.459C 103.593 222.608 102.175 218.088 99.7264 214.299L 137.034 210.663L 137.03 210.663zM 68.1984 206.26L 56.4444 194.319L 67.1084 69.3074L 73.0504 204.248C 71.3434 204.737 69.7224 205.42 68.1984 206.26zM 59.3824 214.573L 55.0734 210.104L 55.9374 199.85L 64.5974 208.674C 62.5504 210.334 60.7884 212.331 59.3824 214.573zM 97.0694 210.905C 92.7494 206.303 86.6364 203.405 79.8274 203.35C 78.7374 203.342 77.6634 203.405 76.6164 203.538L 70.2334 61.6704L 70.5774 61.8704L 117.741 78.2684C 119.741 78.9984 121.222 80.8344 121.386 83.0774L 133.214 207.545L 97.0694 210.905zM 60.0304 227.116C 60.1164 216.288 68.9644 207.581 79.7884 207.666C 90.6164 207.752 99.3274 216.596 99.2414 227.424C 99.1554 238.252 90.3084 246.963 79.4804 246.877C 68.6514 246.791 59.9444 237.944 60.0304 227.116" style="stroke:none; fill-rule:evenodd; fill:#000000"/>
    <path d="M 67.3704 227.303C 67.4254 220.456 73.0194 214.952 79.8664 215.006C 86.7104 215.057 92.2184 220.651 92.1634 227.498C 92.1084 234.342 86.5154 239.85 79.6714 239.795C 72.8234 239.741 67.3194 234.151 67.3704 227.303zM 79.5734 235.354C 84.0344 235.389 87.6834 231.799 87.7184 227.334C 87.7534 222.87 84.1634 219.225 79.6984 219.19C 75.2374 219.155 71.5894 222.745 71.5544 227.209C 71.5194 231.67 75.1084 235.319 79.5734 235.354" style="stroke:none; fill-rule:evenodd; fill:#000000"/>
    <path d="M 29.6204 265.393L 2.62042 265.393" style="stroke:#000000; stroke-width:0.5; fill:none"/>
    <path d="M 38.6204 274.393L 38.6204 301.393" style="stroke:#000000; stroke-width:0.5; fill:none"/>
    <path d="M 29.6204 38.6204L 2.62042 38.6204" style="stroke:#000000; stroke-width:0.5; fill:none"/>
    <path d="M 38.6204 29.6204L 38.6204 2.62042" style="stroke:#000000; stroke-width:0.5; fill:none"/>
    <path d="M 274.394 38.6204L 301.394 38.6204" style="stroke:#000000; stroke-width:0.5; fill:none"/>
    <path d="M 265.394 29.6204L 265.394 2.62042" style="stroke:#000000; stroke-width:0.5; fill:none"/>
    <path d="M 274.394 265.393L 301.394 265.393" style="stroke:#000000; stroke-width:0.5; fill:none"/>
    <path d="M 265.394 274.393L 265.394 301.393" style="stroke:#000000; stroke-width:0.5; fill:none"/>
  </g>
</svg>

<svg viewBox="0 0 304.01 304.01"><g transform="matrix(1.35328 0 0 1.35328-53.21-52.19)" fill-rule="evenodd"><path d="m183.98 130.35c5.821 0 11.918-5.426 11.918-12.12 0-6.696-5.336-12.12-11.918-12.12-6.582 0-11.918 5.421-11.918 12.12 0 6.691 5.336 12.12 11.918 12.12"/><path d="m187.1 194.72c0-1.519-1.211-2.754-2.707-2.754-1.493 0-2.704 1.235-2.704 2.754l-.003 45.688c0 3.656-2.915 6.617-6.504 6.617-3.598 0-6.508-2.961-6.508-6.617v-90.83c0-1.539-1.231-2.789-2.746-2.789-1.516 0-2.742 1.25-2.742 2.789v37.06c0 2.598-2.075 4.703-4.629 4.703-2.555 0-4.629-2.105-4.629-4.703v-40.996c0-6.723 5.363-12.176 11.976-12.176h37c6.613 0 11.973 5.453 11.973 12.176v40.996c0 2.598-2.07 4.703-4.625 4.703-2.559 0-4.629-2.105-4.629-4.703v-37.06c0-1.539-1.231-2.789-2.746-2.789-1.516 0-2.742 1.25-2.742 2.789v90.83c0 3.656-2.914 6.617-6.508 6.617-3.594 0-6.508-2.961-6.508-6.617l-.02-45.688"/><path d="m230.49 250.04h22.12v-197.22h-22.12v197.22"/><path d="m226.28 189.66l-12.32-12.321-20.547-20.546 9.719-9.715 23.14-23.14-8.367-8.262-19.17 19.18-13.633 13.629-13.679-13.684-19.11-19.11-8.34 8.285 23.05 23.06 9.77 9.77-20.656 20.656-12.172 12.176 8.363 8.261 1.262-1.261 15.391-15.391 2.195-2.195 13.929-13.934 13.852 13.852 2.164 2.164 15.469 15.468 1.305 1.305 8.39-8.234" fill="#ff3e3e"/><path d="m137.03 210.66l-12.191-127.8c-.25-3.649-2.676-6.664-5.926-7.856l-50.797-17.523h-.008l-1.074-.371v.011l-.07-.019h.058l-3.23-.59-11.449.047.015 3.16 11.844-.09-12.668 152.05-.133-.113.032 3.371 2.316.051 3.594 3.652c-1.02 2.617-1.598 5.457-1.621 8.434-.106 13.21 10.519 24 23.726 24.11 13.211.101 24-10.524 24.11-23.731.035-4.851-1.383-9.371-3.832-13.16l37.31-3.636h-.004m-68.832-4.403l-11.754-11.941 10.664-125.01 5.942 134.94c-1.707.489-3.328 1.172-4.852 2.01m-8.816 8.313l-4.309-4.469.864-10.254 8.66 8.824c-2.047 1.66-3.809 3.657-5.215 5.899m37.687-3.668c-4.32-4.602-10.433-7.5-17.242-7.555-1.09-.008-2.164.055-3.211.188l-6.383-141.87.344.2 47.16 16.398c2 .73 3.481 2.566 3.645 4.809l11.828 124.47-36.14 3.36m-37.04 16.211c.086-10.828 8.934-19.535 19.758-19.45 10.828.086 19.539 8.93 19.453 19.758-.086 10.828-8.933 19.539-19.761 19.453-10.829-.086-19.536-8.933-19.45-19.761"/><path d="m67.37 227.3c.055-6.847 5.649-12.351 12.496-12.297 6.844.051 12.352 5.645 12.297 12.492-.055 6.844-5.648 12.352-12.492 12.297-6.848-.054-12.352-5.644-12.301-12.492m12.203 8.05c4.461.035 8.11-3.555 8.145-8.02.035-4.464-3.555-8.109-8.02-8.144-4.461-.035-8.109 3.555-8.144 8.02-.035 4.461 3.554 8.11 8.02 8.145"/></g></svg>
